svgs/sharp-light/align-justify.svg

<svg xmlns="http://www.w3.org/2000/svg" viewBox="0 0 448 512"><!--! Font Awesome Pro 6.6.0 by @fontawesome - https://fontawesome.com License - https://fontawesome.com/license (Commercial License) Copyright 2024 Fonticons, Inc. --><path d="M16 48L0 48 0 80l16 0 416 0 16 0 0-32-16 0L16 48zM0 176l0 32 16 0 416 0 16 0 0-32-16 0L16 176 0 176zM16 304L0 304l0 32 16 0 416 0 16 0 0-32-16 0L16 304zm0 128L0 432l0 32 16 0 416 0 16 0 0-32-16 0L16 432z"/></svg>

<svg xmlns="http://www.w3.org/2000/svg" viewBox="0 0 448 512"><!--! Font Awesome Pro 6.4.2 by @fontawesome - https://fontawesome.com License - https://fontawesome.com/license (Commercial License) Copyright 2023 Fonticons, Inc. --><path d="M16 48H0V80H16 432h16V48H432 16zM0 176v32H16 432h16V176H432 16 0zM16 304H0v32H16 432h16V304H432 16zm0 128H0v32H16 432h16V432H432 16z"/></svg>
